X: 6
T: The Blarney Pilgrim
R: jig
M: 6/8
L: 1/8
K: Dmix
|:D3 DEG| A3 ABc| BAG AGE| GEA GED|
D3 DEG|A3 ABc|BAG AGE| GED D3:|
ded dBG|AGA BGE| ded dBG|AGA GBd|
g2e dBG|AGA BGE|B2G AGE| GED D3:|
A2D B2D| A2D ABc|BAG AGE|GEA GED|
ADD BDD|ADD ABc|BAG AGE|GED D3:|


Tune 5	Setting 25593

